packages/tokens/icons/calculator/size24Px.svg

<svg viewBox="0 0 24 24" fill="none" xmlns="http://www.w3.org/2000/svg" width="1em" height="1em"><rect x="4.5" y="2.5" width="15" height="19" rx="1.5" stroke="currentColor"/><rect x="15.5" y="13.5" width="2" height="6" rx="0.5" stroke="currentColor"/><rect x="15.5" y="9.5" width="2" height="2" rx="0.5" stroke="currentColor"/><path d="M11 10C11 9.72386 11.2239 9.5 11.5 9.5H12.5C12.7761 9.5 13 9.72386 13 10V11C13 11.2761 12.7761 11.5 12.5 11.5H11.5C11.2239 11.5 11 11.2761 11 11V10Z" stroke="currentColor"/><path d="M11 14C11 13.7239 11.2239 13.5 11.5 13.5H12.5C12.7761 13.5 13 13.7239 13 14V15C13 15.2761 12.7761 15.5 12.5 15.5H11.5C11.2239 15.5 11 15.2761 11 15V14Z" stroke="currentColor"/><path d="M11 18C11 17.7239 11.2239 17.5 11.5 17.5H12.5C12.7761 17.5 13 17.7239 13 18V19C13 19.2761 12.7761 19.5 12.5 19.5H11.5C11.2239 19.5 11 19.2761 11 19V18Z" stroke="currentColor"/><path d="M6.5 10C6.5 9.72386 6.72386 9.5 7 9.5H8C8.27614 9.5 8.5 9.72386 8.5 10V11C8.5 11.2761 8.27614 11.5 8 11.5H7C6.72386 11.5 6.5 11.2761 6.5 11V10Z" stroke="currentColor"/><path d="M6.5 14C6.5 13.7239 6.72386 13.5 7 13.5H8C8.27614 13.5 8.5 13.7239 8.5 14V15C8.5 15.2761 8.27614 15.5 8 15.5H7C6.72386 15.5 6.5 15.2761 6.5 15V14Z" stroke="currentColor"/><path d="M6.5 18C6.5 17.7239 6.72386 17.5 7 17.5H8C8.27614 17.5 8.5 17.7239 8.5 18V19C8.5 19.2761 8.27614 19.5 8 19.5H7C6.72386 19.5 6.5 19.2761 6.5 19V18Z" stroke="currentColor"/><rect x="6.5" y="4.5" width="11" height="3" rx="0.5" stroke="currentColor"/></svg>

<svg xmlns="http://www.w3.org/2000/svg" fill="none" viewBox="0 0 24 24" width="1em" height="1em"><rect width="15" height="19" x="4.5" y="2.5" stroke="currentColor" rx="1.5"/><rect width="2" height="6" x="15.5" y="13.5" stroke="currentColor" rx=".5"/><rect width="2" height="2" x="15.5" y="9.5" stroke="currentColor" rx=".5"/><path stroke="currentColor" d="M11 10a.5.5 0 0 1 .5-.5h1a.5.5 0 0 1 .5.5v1a.5.5 0 0 1-.5.5h-1a.5.5 0 0 1-.5-.5v-1Zm0 4a.5.5 0 0 1 .5-.5h1a.5.5 0 0 1 .5.5v1a.5.5 0 0 1-.5.5h-1a.5.5 0 0 1-.5-.5v-1Zm0 4a.5.5 0 0 1 .5-.5h1a.5.5 0 0 1 .5.5v1a.5.5 0 0 1-.5.5h-1a.5.5 0 0 1-.5-.5v-1Zm-4.5-8a.5.5 0 0 1 .5-.5h1a.5.5 0 0 1 .5.5v1a.5.5 0 0 1-.5.5H7a.5.5 0 0 1-.5-.5v-1Zm0 4a.5.5 0 0 1 .5-.5h1a.5.5 0 0 1 .5.5v1a.5.5 0 0 1-.5.5H7a.5.5 0 0 1-.5-.5v-1Zm0 4a.5.5 0 0 1 .5-.5h1a.5.5 0 0 1 .5.5v1a.5.5 0 0 1-.5.5H7a.5.5 0 0 1-.5-.5v-1Z"/><rect width="11" height="3" x="6.5" y="4.5" stroke="currentColor" rx=".5"/></svg>
